T: Purple Sunrise, The
M: 4/4
L: 1/8
K: Dmin
D>FA>d B>GB>d | ^c>Ac>f d2 (3efg | a>gf>a g>fe>g | f>e (3def e>^c AG/E/ |D>FA>d B>GB>d | ^c>Ac>f d2 (3efg | a>ba>g f>gf>e | (3def e>^c d2 :|a>fd>a g>ec>e | f>e (3def e>^c Ag/e/ | d>ed>c B>cB>G | GBAG E3 G/E/ |D>FA>d B>GB>d | ^cAcf d3 (3efg | a>ba>g f>gf>e | (3def e^c d2 :|Corrections ~ | ^c>Ac>f d3 (3efg | ~ to ~ | ^c>Ac>f d2 (3efg | ~ 3 Xs| f>e (3def e>^c A2 G/E/ | ~ to ~  | f>e (3def e>^c AG/E/ | ~ once ~ or (3AGE| f>e (3def e>^c A2 g/e/ | ~ to ~  | f>e (3def e>^c Ag/e/ | ~ once ~ or (3Age
